icons-common/bastID-filled.svg

<svg height="1em" width="auto" viewBox="0 0 105 105" fill="currentColor" xmlns="http://www.w3.org/2000/svg">
    <mask id="path-1-outside-1_2188_7977" maskUnits="userSpaceOnUse" x="2" y="29" width="100" height="46" fill="black">
        <rect fill="white" x="2" y="29" width="100" height="46"/>
        <path d="M7 41.8348C7 37.5078 10.5258 34 14.875 34H89.125C93.4742 34 97 37.5078 97 41.8348V61.9815C97 66.3086 93.4742 69.8163 89.125 69.8163H14.875C10.5258 69.8163 7 66.3086 7 61.9815V41.8348Z"/>
        <path d="M51.4425 61.9815V42.3945H55.9987V61.9815H51.4425Z"/>
        <path d="M60.7553 61.9815V42.3945H69.6991C71.8366 42.3945 73.721 42.8048 75.3522 43.6256C76.9835 44.4278 78.2585 45.5564 79.1772 47.0114C80.096 48.4664 80.5553 50.192 80.5553 52.188C80.5553 54.1653 80.096 55.8909 79.1772 57.3646C78.2585 58.8196 76.9835 59.9575 75.3522 60.7783C73.721 61.5804 71.8366 61.9815 69.6991 61.9815H60.7553ZM65.3116 58.26H69.4741C70.7866 58.26 71.921 58.0175 72.8772 57.5324C73.8522 57.0288 74.6022 56.3199 75.1272 55.4059C75.671 54.4918 75.9428 53.4192 75.9428 52.188C75.9428 50.9381 75.671 49.8655 75.1272 48.9701C74.6022 48.056 73.8522 47.3565 72.8772 46.8715C71.921 46.3678 70.7866 46.116 69.4741 46.116H65.3116V58.26Z"/>
    </mask>
    <path d="M7 41.8348C7 37.5078 10.5258 34 14.875 34H89.125C93.4742 34 97 37.5078 97 41.8348V61.9815C97 66.3086 93.4742 69.8163 89.125 69.8163H14.875C10.5258 69.8163 7 66.3086 7 61.9815V41.8348Z"
          />
    <path d="M51.4425 61.9815V42.3945H55.9987V61.9815H51.4425Z" fill="#DBEBF8"/>
    <path d="M60.7553 61.9815V42.3945H69.6991C71.8366 42.3945 73.721 42.8048 75.3522 43.6256C76.9835 44.4278 78.2585 45.5564 79.1772 47.0114C80.096 48.4664 80.5553 50.192 80.5553 52.188C80.5553 54.1653 80.096 55.8909 79.1772 57.3646C78.2585 58.8196 76.9835 59.9575 75.3522 60.7783C73.721 61.5804 71.8366 61.9815 69.6991 61.9815H60.7553ZM65.3116 58.26H69.4741C70.7866 58.26 71.921 58.0175 72.8772 57.5324C73.8522 57.0288 74.6022 56.3199 75.1272 55.4059C75.671 54.4918 75.9428 53.4192 75.9428 52.188C75.9428 50.9381 75.671 49.8655 75.1272 48.9701C74.6022 48.056 73.8522 47.3565 72.8772 46.8715C71.921 46.3678 70.7866 46.116 69.4741 46.116H65.3116V58.26Z"
          fill="#DBEBF8"/>
    <path d="M51.4425 61.9815H46.4425V66.9815H51.4425V61.9815ZM51.4425 42.3945V37.3945H46.4425V42.3945H51.4425ZM55.9987 42.3945H60.9987V37.3945H55.9987V42.3945ZM55.9987 61.9815V66.9815H60.9987V61.9815H55.9987ZM60.7553 61.9815H55.7553V66.9815H60.7553V61.9815ZM60.7553 42.3945V37.3945H55.7553V42.3945H60.7553ZM75.3522 43.6256L73.1048 48.0921L73.1253 48.1024L73.1459 48.1125L75.3522 43.6256ZM79.1772 57.3646L83.405 60.0341L83.4126 60.0219L83.4202 60.0098L79.1772 57.3646ZM75.3522 60.7783L77.5586 65.2652L77.5791 65.2551L77.5996 65.2448L75.3522 60.7783ZM65.3116 58.26H60.3116V63.26H65.3116V58.26ZM72.8772 57.5324L75.1389 61.9917L75.1555 61.9833L75.172 61.9747L72.8772 57.5324ZM75.1272 55.4059L70.8301 52.8496L70.8105 52.8824L70.7915 52.9156L75.1272 55.4059ZM75.1272 48.9701L70.7915 51.4604L70.8219 51.5133L70.8535 51.5654L75.1272 48.9701ZM72.8772 46.8715L70.5471 51.2954L70.5984 51.3224L70.6503 51.3482L72.8772 46.8715ZM65.3116 46.116V41.116H60.3116V46.116H65.3116ZM14.875 39H89.125V29H14.875V39ZM92 41.8348V61.9815H102V41.8348H92ZM89.125 64.8163H14.875V74.8163H89.125V64.8163ZM12 61.9815V41.8348H2V61.9815H12ZM14.875 64.8163C13.263 64.8163 12 63.5231 12 61.9815H2C2 69.0941 7.78847 74.8163 14.875 74.8163V64.8163ZM92 61.9815C92 63.5231 90.737 64.8163 89.125 64.8163V74.8163C96.2115 74.8163 102 69.0941 102 61.9815H92ZM89.125 39C90.737 39 92 40.2933 92 41.8348H102C102 34.7223 96.2115 29 89.125 29V39ZM14.875 29C7.78848 29 2 34.7223 2 41.8348H12C12 40.2933 13.263 39 14.875 39V29ZM56.4425 61.9815V42.3945H46.4425V61.9815H56.4425ZM51.4425 47.3945H55.9987V37.3945H51.4425V47.3945ZM50.9987 42.3945V61.9815H60.9987V42.3945H50.9987ZM55.9987 56.9815H51.4425V66.9815H55.9987V56.9815ZM65.7553 61.9815V42.3945H55.7553V61.9815H65.7553ZM60.7553 47.3945H69.6991V37.3945H60.7553V47.3945ZM69.6991 47.3945C71.1889 47.3945 72.2805 47.6773 73.1048 48.0921L77.5996 39.1592C75.1615 37.9324 72.4843 37.3945 69.6991 37.3945V47.3945ZM73.1459 48.1125C73.9972 48.5311 74.552 49.0514 74.9495 49.6809L83.405 44.3419C81.9649 42.0613 79.9697 40.3244 77.5586 39.1388L73.1459 48.1125ZM74.9495 49.6809C75.2873 50.216 75.5553 50.9828 75.5553 52.188H85.5553C85.5553 49.4011 84.9046 46.7169 83.405 44.3419L74.9495 49.6809ZM75.5553 52.188C75.5553 53.3629 75.2924 54.1448 74.9342 54.7193L83.4202 60.0098C84.8995 57.6369 85.5553 54.9677 85.5553 52.188H75.5553ZM74.9495 54.6951C74.5454 55.3349 73.9767 55.8731 73.1048 56.3118L77.5996 65.2448C79.9902 64.0419 81.9715 62.3043 83.405 60.0341L74.9495 54.6951ZM73.1459 56.2914C72.3119 56.7015 71.2054 56.9815 69.6991 56.9815V66.9815C72.4678 66.9815 75.13 66.4594 77.5586 65.2652L73.1459 56.2914ZM69.6991 56.9815H60.7553V66.9815H69.6991V56.9815ZM65.3116 63.26H69.4741V53.26H65.3116V63.26ZM69.4741 63.26C71.3991 63.26 73.3419 62.9031 75.1389 61.9917L70.6155 53.0732C70.5 53.1318 70.1741 53.26 69.4741 53.26V63.26ZM75.172 61.9747C76.9638 61.0491 78.439 59.6788 79.4629 57.8961L70.7915 52.9156C70.7654 52.961 70.7406 53.0084 70.5824 53.0902L75.172 61.9747ZM79.4244 57.9621C80.4965 56.1598 80.9428 54.1751 80.9428 52.188H70.9428C70.9428 52.6632 70.8454 52.8238 70.8301 52.8496L79.4244 57.9621ZM80.9428 52.188C80.9428 50.2009 80.5043 48.1919 79.4009 46.3748L70.8535 51.5654C70.8549 51.5677 70.859 51.5747 70.865 51.5892C70.8711 51.6039 70.8812 51.6312 70.8922 51.6746C70.9142 51.7615 70.9428 51.9248 70.9428 52.188H80.9428ZM79.4629 46.4798C78.4295 44.6805 76.9317 43.3039 75.1041 42.3948L70.6503 51.3482C70.7325 51.3891 70.7596 51.4154 70.7606 51.4163C70.7629 51.4184 70.765 51.4206 70.7682 51.4247C70.7714 51.4288 70.7795 51.4396 70.7915 51.4604L79.4629 46.4798ZM75.2073 42.4476C73.3943 41.4927 71.4263 41.116 69.4741 41.116V51.116C70.1469 51.116 70.4476 51.243 70.5471 51.2954L75.2073 42.4476ZM69.4741 41.116H65.3116V51.116H69.4741V41.116ZM60.3116 46.116V58.26H70.3116V46.116H60.3116Z"
          mask="url(#path-1-outside-1_2188_7977)"/>
    <path d="M36.3003 42.7741C36.4012 43.1341 36.5021 43.5328 36.6031 43.9443C37.852 48.741 39.7949 56.2125 40.4005 58.5401C40.4888 58.8616 40.1986 59.1574 39.8706 59.0802C38.9749 58.8616 37.4736 58.4758 36.6914 58.2829C35.9723 55.5438 35.2658 52.8047 34.5467 50.0398C32.6543 52.1488 30.7745 54.2321 28.8948 56.3283C27.835 56.0582 26.7753 55.801 25.7156 55.531C25.3876 55.4538 25.274 55.0423 25.5011 54.7851C29.0966 50.7728 32.6795 46.7992 36.3003 42.7741ZM36.3003 40.5236C35.6947 40.5236 35.1018 40.7808 34.6728 41.2566L31.5693 44.7159L23.3564 53.8206C22.8265 54.4122 22.6499 55.2352 22.8644 55.9939C23.0915 56.7526 23.697 57.3442 24.454 57.5242L27.7846 58.3601L28.3523 58.5016C28.5289 58.5401 28.7055 58.5659 28.8822 58.5659C29.4877 58.5659 30.0807 58.3087 30.5096 57.8328L33.4365 54.5793V54.6179L34.5467 58.8616C34.7485 59.6589 35.3667 60.2762 36.1489 60.4691L40.0346 61.4464C40.2112 61.4979 40.3878 61.5107 40.5771 61.5107C41.1574 61.5107 41.7251 61.2793 42.1414 60.842C43.0372 59.929 42.8858 59.3246 42.2928 57.087L41.2709 53.1648L38.7099 43.3528L38.4071 42.1825C38.2053 41.3852 37.5871 40.7679 36.8049 40.575C36.6283 40.5365 36.4517 40.5107 36.2751 40.5107L36.3003 40.5236Z"
          fill="#DBEBF8"/>
</svg>

<svg xmlns="http://www.w3.org/2000/svg" width="auto" height="1em" fill="currentColor" viewBox="0 0 105 105">
    <mask id="a" width="100" height="46" x="2" y="29" maskUnits="userSpaceOnUse">
        <path fill="#fff" d="M2 29h100v46H2z"/>
        <path d="M7 41.835C7 37.508 10.526 34 14.875 34h74.25C93.475 34 97 37.508 97 41.835V61.98c0 4.328-3.526 7.835-7.875 7.835h-74.25C10.525 69.816 7 66.31 7 61.981z"/>
        <path d="M51.443 61.982V42.394h4.556V61.98zm9.312 0V42.394H69.7q3.207 0 5.653 1.23 2.447 1.204 3.825 3.386t1.378 5.177q0 2.966-1.378 5.177-1.378 2.183-3.825 3.413-2.446 1.203-5.653 1.203zm4.557-3.722h4.162q1.97 0 3.403-.728 1.462-.755 2.25-2.126.816-1.371.816-3.218 0-1.875-.816-3.218a5.2 5.2 0 0 0-2.25-2.099q-1.434-.755-3.403-.755h-4.162z"/>
    </mask>
    <path d="M7 41.835C7 37.508 10.526 34 14.875 34h74.25C93.475 34 97 37.508 97 41.835V61.98c0 4.328-3.526 7.835-7.875 7.835h-74.25C10.525 69.816 7 66.31 7 61.981z"/>
    <path fill="#dbebf8" d="M51.443 61.982V42.394h4.556V61.98zm9.312 0V42.394H69.7q3.207 0 5.653 1.23 2.447 1.204 3.825 3.386t1.378 5.177q0 2.966-1.378 5.177-1.378 2.183-3.825 3.413-2.446 1.203-5.653 1.203zm4.557-3.722h4.162q1.97 0 3.403-.728 1.462-.755 2.25-2.126.816-1.371.816-3.218 0-1.875-.816-3.218a5.2 5.2 0 0 0-2.25-2.099q-1.434-.755-3.403-.755h-4.162z"/>
    <path d="M51.443 61.982h-5v5h5zm0-19.587v-5h-5v5zm4.556 0h5v-5h-5zm0 19.586v5h5v-5zm4.756 0h-5v5h5zm0-19.586v-5h-5v5zm14.597 1.23-2.247 4.467.02.01.02.01zm3.825 13.74 4.228 2.67.008-.013.007-.012zm-3.825 3.413 2.207 4.487.02-.01.02-.01zm-10.04-2.518h-5v5h5zm7.565-.728 2.262 4.46.017-.009.016-.008zm2.25-2.126L70.83 52.85l-.02.032-.019.034zm0-6.436-4.335 2.49.03.053.031.052zm-2.25-2.099-2.33 4.424.051.027.052.026zm-7.565-.755v-5h-5v5zM14.875 39h74.25V29h-74.25zM92 41.835V61.98h10V41.835zm-2.875 22.981h-74.25v10h74.25zM12 61.981V41.835H2V61.98zm2.875 2.835c-1.612 0-2.875-1.293-2.875-2.835H2c0 7.113 5.788 12.835 12.875 12.835zM92 61.981c0 1.542-1.263 2.835-2.875 2.835v10c7.087 0 12.875-5.722 12.875-12.835zM89.125 39C90.737 39 92 40.293 92 41.835h10C102 34.722 96.212 29 89.125 29zm-74.25-10C7.788 29 2 34.722 2 41.835h10C12 40.293 13.263 39 14.875 39zm41.568 32.982V42.394h-10V61.98zm-5-14.587h4.556v-10h-4.556zm-.444-5V61.98h10V42.396zm5 14.586h-4.556v10h4.556zm9.756 5V42.396h-10V61.98zm-5-14.586H69.7v-10h-8.944zm8.944 0c1.49 0 2.582.282 3.406.697L77.6 39.16c-2.438-1.227-5.116-1.764-7.9-1.764zm3.447.717c.851.42 1.406.94 1.803 1.569l8.456-5.34c-1.44-2.28-3.435-4.017-5.846-5.202zm1.803 1.569c.338.535.606 1.302.606 2.507h10c0-2.787-.65-5.471-2.15-7.846zm.606 2.507c0 1.175-.263 1.957-.62 2.531l8.485 5.29c1.48-2.372 2.135-5.041 2.135-7.821zm-.606 2.507c-.404.64-.972 1.178-1.844 1.617l4.495 8.933c2.39-1.203 4.372-2.94 5.805-5.21zm-1.803 1.596c-.834.41-1.94.69-3.447.69v10c2.769 0 5.431-.522 7.86-1.716zm-3.447.69h-8.944v10H69.7zm-4.387 6.279h4.162v-10h-4.162zm4.162 0c1.925 0 3.868-.357 5.665-1.268l-4.523-8.919c-.116.059-.442.187-1.142.187zm5.698-1.285c1.792-.926 3.267-2.296 4.29-4.079l-8.67-4.98c-.027.045-.051.092-.21.174zm4.252-4.013c1.072-1.802 1.519-3.787 1.519-5.774h-10c0 .475-.098.636-.113.662zm1.519-5.774c0-1.987-.439-3.996-1.542-5.813l-8.547 5.19.011.024a1 1 0 0 1 .027.086c.022.087.05.25.05.513zm-1.48-5.708a10.2 10.2 0 0 0-4.359-4.085l-4.454 8.953c.082.041.11.067.11.068l.008.009.023.035zm-4.256-4.032c-1.813-.955-3.78-1.332-5.733-1.332v10c.673 0 .974.127 1.073.18zm-5.733-1.332h-4.162v10h4.162zm-9.162 5V58.26h10V46.116z" mask="url(#a)"/>
    <path fill="#dbebf8" d="M36.3 42.774c.101.36.202.759.303 1.17L40.4 58.54a.44.44 0 0 1-.53.54c-.895-.218-2.396-.604-3.179-.797-.719-2.74-1.425-5.478-2.144-8.243-1.893 2.109-3.772 4.192-5.652 6.288-1.06-.27-2.12-.527-3.18-.797-.327-.077-.441-.489-.214-.746 3.596-4.012 7.178-7.986 10.8-12.01m0-2.25c-.605 0-1.198.257-1.627.733l-3.104 3.459-8.213 9.105a2.31 2.31 0 0 0-.492 2.173c.227.759.833 1.35 1.59 1.53l3.33.836.568.142c.177.038.354.064.53.064.606 0 1.199-.257 1.628-.733l2.927-3.254v.039l1.11 4.244c.202.797.82 1.414 1.602 1.607l3.886.977a2 2 0 0 0 .542.065c.58 0 1.148-.232 1.564-.669.896-.913.745-1.517.152-3.755l-1.022-3.922-2.561-9.812-.303-1.17a2.21 2.21 0 0 0-1.602-1.608 2.5 2.5 0 0 0-.53-.064z"/>
</svg>
